packages/smooth_app/assets/onboarding/globe.svg

<svg width="237" height="254" viewBox="0 0 237 254" fill="none" xmlns="http://www.w3.org/2000/svg">
    <g clip-path="url(#clip0_2948_16350)">
        <path d="M205.416 30.1764L210.498 25.1002C211.353 24.2464 211.353 22.8585 210.498 22.0046C209.643 21.1508 208.254 21.1508 207.399 22.0046L183.574 45.8026C182.72 46.6565 182.72 48.0444 183.574 48.8982C184.004 49.3271 184.562 49.5415 185.124 49.5415C185.686 49.5415 186.248 49.3271 186.673 48.8982L195.815 39.7674C233.202 79.0005 232.617 141.084 194.058 179.6L194.039 179.62C155.48 218.135 93.327 218.72 54.0501 181.374L63.1912 172.243C64.046 171.389 64.046 170.001 63.1912 169.148C62.3364 168.294 60.9469 168.294 60.0921 169.148L36.2676 192.946C35.4128 193.799 35.4128 195.187 36.2676 196.041C36.697 196.47 37.2551 196.684 37.8171 196.684C38.3792 196.684 38.9412 196.47 39.3667 196.041L44.4485 190.965C65.9038 211.488 93.4207 221.991 121.086 222.49V235.407H109.31C99.0333 235.407 90.7002 243.731 90.7002 253.996H155.847C155.847 243.731 147.514 235.407 137.237 235.407H125.465V222.483C153.821 221.909 182.001 210.821 203.64 189.211L203.66 189.191C247.523 145.377 248.108 74.708 205.42 30.1725L205.416 30.1764Z" fill="#784600"/>
        <path d="M126.913 174.383C138.583 159.365 171.412 175.92 158.267 142.18C145.121 108.44 190.666 105.013 204.694 111.469C208.843 113.38 212.918 116.358 216.782 120.082C217.223 116.382 217.457 112.616 217.457 108.799C217.457 103.184 216.961 97.6833 216.017 92.3381C187.731 83.5542 182.368 60.7153 167.658 69.9241C152.615 79.3435 132.065 60.0447 133.814 46.2899C135.141 35.849 141.519 22.2151 138.38 15.9225C133.459 15.131 128.412 14.71 123.264 14.71C111.043 14.71 99.3651 17.0375 88.651 21.2677C94.8179 40.3131 99.849 50.1808 84.4474 61.7796C65.4979 76.053 50.4592 66.501 50.4592 88.1781C50.4592 109.855 64.7485 118.873 50.4592 132.394C46.4117 136.226 40.6117 138.546 34.2926 139.724C37.259 148.238 41.4119 156.2 46.56 163.401C67.2152 147.443 91.3559 171.081 97.9326 182.941C100.79 188.092 100.228 193.862 98.241 199.515C106.211 201.702 114.603 202.879 123.268 202.879C125.204 202.879 127.12 202.813 129.029 202.7C123.494 191.246 121.816 180.937 126.909 174.383H126.913ZM107.366 160.734C96.4377 163.085 94.0724 132.78 87.4099 119.22C80.7473 105.656 71.5555 95.7261 79.4124 87.375C87.2694 79.0238 95.2395 87.375 108.647 76.7587C122.987 65.4094 135.679 77.1524 138.056 87.9637C140.433 98.7749 131.363 110.506 129.392 116.269C128.08 120.11 127.858 126.4 128.724 135.139C130.024 148.246 118.291 158.383 107.362 160.734H107.366Z" fill="#78E6FF"/>
        <path d="M133.826 46.2898C132.077 60.0446 152.627 79.3434 167.669 69.924C182.38 60.7113 187.743 83.5502 216.029 92.338C209.101 53.1165 177.849 22.2851 138.396 15.9263C141.534 22.2189 135.156 35.8528 133.829 46.2937L133.826 46.2898Z" fill="#009664"/>
        <path d="M128.728 135.142C127.859 126.404 128.081 120.114 129.395 116.273C131.363 110.51 140.437 98.7788 138.06 87.9676C135.683 77.1563 122.99 65.4133 108.651 76.7625C95.2395 87.3788 87.2694 79.0277 79.4163 87.3788C71.5594 95.73 80.7512 105.66 87.4138 119.224C94.0764 132.788 96.4455 163.089 107.37 160.738C118.295 158.387 130.032 148.25 128.732 135.142H128.728Z" fill="#009664"/>
        <path d="M97.9404 182.941C91.3637 171.081 67.2231 147.447 46.5679 163.401C58.968 180.754 77.1252 193.713 98.2527 199.515C100.239 193.862 100.798 188.091 97.9443 182.941H97.9404Z" fill="#009664"/>
        <path d="M50.467 88.178C50.467 66.497 65.5096 76.0529 84.4552 61.7795C99.8568 50.1768 94.8257 40.313 88.6588 21.2676C53.7652 35.0458 29.082 69.0429 29.082 108.795C29.082 119.629 30.9203 130.035 34.2965 139.723C40.6156 138.55 46.4156 136.226 50.4631 132.394C64.7524 118.873 50.4631 109.855 50.4631 88.178H50.467Z" fill="#009664"/>
        <path d="M158.267 142.18C171.408 175.923 138.579 159.365 126.913 174.383C121.823 180.933 123.498 191.242 129.032 202.7C174.601 199.951 211.427 164.847 216.786 120.082C212.922 116.358 208.847 113.38 204.698 111.469C190.67 105.013 145.125 108.436 158.271 142.18H158.267Z" fill="#009664"/>
        <path d="M32.4582 115.36C20.0853 111.146 6.58453 117.77 2.36528 130.129C-0.507403 138.546 1.65491 147.482 7.23244 153.658L0 161.806L4.49637 165.791L11.7913 157.572C13.4267 158.644 15.2182 159.529 17.1502 160.188C29.523 164.403 43.0238 157.779 47.2431 145.42C51.4623 133.061 44.831 119.575 32.4582 115.36ZM41.5563 143.482C38.4065 152.706 28.3287 157.654 19.094 154.508C9.85922 151.361 4.90619 141.295 8.05599 132.07C11.2058 122.846 21.2836 117.898 30.5183 121.045C39.753 124.191 44.7061 134.258 41.5563 143.482Z" fill="black"/>
        <path d="M41.5563 143.482C38.4065 152.706 28.3287 157.654 19.0939 154.508C9.85921 151.361 4.90618 141.295 8.05598 132.07C11.2058 122.846 21.2836 117.898 30.5183 121.045C39.753 124.191 44.7061 134.257 41.5563 143.482Z" fill="white"/>
        <path d="M37.0716 138.293C35.5923 142.624 30.8618 144.944 26.5293 143.466C22.193 141.989 19.8706 137.264 21.3499 132.936C22.8292 128.604 27.5597 126.285 31.8922 127.762C36.2285 129.24 38.5509 133.965 37.0716 138.293Z" fill="black"/>
        <path d="M37.821 133.599C37.1848 135.466 35.1474 136.464 33.2778 135.829C31.4082 135.193 30.409 133.158 31.0453 131.291C31.6815 129.423 33.7189 128.425 35.5885 129.061C37.458 129.696 38.4572 131.731 37.821 133.599Z" fill="white"/>
        <path d="M121.004 0C107.932 0 97.2964 10.6241 97.2964 23.681C97.2964 32.5741 102.23 40.3326 109.505 44.3795L105.294 54.4227L110.836 56.7425L115.083 46.6135C116.976 47.1009 118.959 47.3621 121.004 47.3621C134.075 47.3621 144.711 36.738 144.711 23.681C144.711 10.6241 134.075 0 121.004 0ZM138.7 23.681C138.7 33.4279 130.762 41.358 121.004 41.358C111.246 41.358 103.307 33.4279 103.307 23.681C103.307 13.9342 111.246 6.00408 121.004 6.00408C130.762 6.00408 138.7 13.9342 138.7 23.681Z" fill="black"/>
        <path d="M121.004 41.3347C130.764 41.3347 138.677 33.431 138.677 23.6812C138.677 13.9314 130.764 6.02759 121.004 6.02759C111.243 6.02759 103.331 13.9314 103.331 23.6812C103.331 33.431 111.243 41.3347 121.004 41.3347Z" fill="white"/>
        <path d="M111.535 31.2602C111.039 31.2602 110.641 30.8586 110.641 30.3674V16.9946C110.641 16.4995 111.043 16.1018 111.535 16.1018C112.027 16.1018 112.429 16.5034 112.429 16.9946V30.3674C112.429 30.8625 112.027 31.2602 111.535 31.2602Z" fill="black"/>
        <path d="M114.692 31.2602C114.197 31.2602 113.799 30.8586 113.799 30.3674V16.9946C113.799 16.4995 114.201 16.1018 114.692 16.1018C115.184 16.1018 115.586 16.5034 115.586 16.9946V30.3674C115.586 30.8625 115.184 31.2602 114.692 31.2602Z" fill="black"/>
        <path d="M117.846 31.2602C117.35 31.2602 116.952 30.8586 116.952 30.3674V16.9946C116.952 16.4995 117.354 16.1018 117.846 16.1018C118.338 16.1018 118.74 16.5034 118.74 16.9946V30.3674C118.74 30.8625 118.338 31.2602 117.846 31.2602Z" fill="black"/>
        <path d="M121.004 31.2602C120.508 31.2602 120.11 30.8586 120.11 30.3674V16.9946C120.11 16.4995 120.512 16.1018 121.004 16.1018C121.496 16.1018 121.898 16.5034 121.898 16.9946V30.3674C121.898 30.8625 121.496 31.2602 121.004 31.2602Z" fill="black"/>
        <path d="M124.157 31.2602C123.662 31.2602 123.264 30.8586 123.264 30.3674V16.9946C123.264 16.4995 123.666 16.1018 124.157 16.1018C124.649 16.1018 125.051 16.5034 125.051 16.9946V30.3674C125.051 30.8625 124.649 31.2602 124.157 31.2602Z" fill="black"/>
        <path d="M127.315 31.2602C126.819 31.2602 126.421 30.8586 126.421 30.3674V16.9946C126.421 16.4995 126.823 16.1018 127.315 16.1018C127.807 16.1018 128.209 16.5034 128.209 16.9946V30.3674C128.209 30.8625 127.807 31.2602 127.315 31.2602Z" fill="black"/>
        <path d="M130.469 31.2602C129.973 31.2602 129.575 30.8586 129.575 30.3674V16.9946C129.575 16.4995 129.977 16.1018 130.469 16.1018C130.961 16.1018 131.363 16.5034 131.363 16.9946V30.3674C131.363 30.8625 130.961 31.2602 130.469 31.2602Z" fill="black"/>
        <path d="M180.218 168.968C186.482 180.431 200.916 184.661 212.387 178.403C214.179 177.425 215.798 176.247 217.223 174.914L225.814 181.772L229.565 177.081L221.048 170.282C225.49 163.245 226.099 154.075 221.833 146.27C215.568 134.807 201.134 130.577 189.663 136.835C178.188 143.092 173.953 157.51 180.218 168.968ZM185.491 166.091C180.815 157.537 183.976 146.773 192.544 142.102C201.107 137.431 211.884 140.589 216.559 149.147C221.235 157.701 218.074 168.465 209.507 173.136C200.943 177.807 190.167 174.649 185.491 166.091Z" fill="black"/>
        <path d="M185.491 166.091C190.167 174.645 200.939 177.807 209.507 173.136C218.07 168.465 221.235 157.705 216.559 149.147C211.884 140.593 201.111 137.431 192.544 142.102C183.98 146.773 180.815 157.533 185.491 166.091Z" fill="white"/>
        <path d="M190.026 159.256C192.22 163.272 197.278 164.754 201.298 162.563C205.319 160.371 206.802 155.319 204.608 151.303C202.415 147.287 197.356 145.806 193.336 147.997C189.316 150.188 187.833 155.241 190.026 159.256Z" fill="black"/>
        <path d="M189.936 152.55C190.881 154.281 193.063 154.921 194.796 153.973C196.529 153.03 197.169 150.851 196.22 149.12C195.276 147.388 193.094 146.749 191.361 147.696C189.628 148.64 188.988 150.819 189.936 152.55Z" fill="white"/>
    </g>
    <defs>
        <clipPath id="clip0_2948_16350">
            <rect width="237" height="254" fill="white"/>
        </clipPath>
    </defs>
</svg>

<svg width="237" height="254" fill="none" xmlns="http://www.w3.org/2000/svg"><g clip-path="url(#a)"><path d="m205.416 30.176 5.082-5.076a2.189 2.189 0 0 0 0-3.095 2.195 2.195 0 0 0-3.099 0l-23.825 23.798a2.19 2.19 0 0 0 3.099 3.095l9.142-9.13C233.202 79 232.617 141.083 194.058 179.6l-.019.02c-38.559 38.515-100.712 39.1-139.989 1.754l9.141-9.131a2.188 2.188 0 0 0 0-3.095 2.195 2.195 0 0 0-3.099 0l-23.824 23.798a2.188 2.188 0 0 0 1.55 3.738c.561 0 1.123-.214 1.549-.643l5.082-5.076c21.455 20.523 48.972 31.026 76.637 31.525v12.917H109.31c-10.277 0-18.61 8.324-18.61 18.589h65.147c0-10.265-8.333-18.589-18.61-18.589h-11.772v-12.924c28.356-.574 56.536-11.662 78.175-33.272l.02-.02c43.863-43.814 44.448-114.483 1.76-159.019l-.004.004Z" fill="#784600"/><path d="M126.913 174.383c11.67-15.018 44.499 1.537 31.354-32.203-13.146-33.74 32.399-37.167 46.427-30.711 4.149 1.911 8.224 4.889 12.088 8.613.441-3.7.675-7.466.675-11.283 0-5.615-.496-11.116-1.44-16.46-28.286-8.785-33.649-31.624-48.359-22.415-15.043 9.42-35.593-9.88-33.844-23.634 1.327-10.441 7.705-24.075 4.566-30.367a95.119 95.119 0 0 0-15.116-1.213c-12.221 0-23.899 2.328-34.613 6.558 6.167 19.045 11.198 28.913-4.204 40.512C65.497 76.053 50.46 66.5 50.46 88.178s14.29 30.695 0 44.216c-4.047 3.832-9.847 6.152-16.166 7.33a93.75 93.75 0 0 0 12.267 23.677c20.655-15.958 44.796 7.68 51.373 19.54 2.857 5.151 2.295 10.921.308 16.574a94.458 94.458 0 0 0 30.788 3.185c-5.535-11.454-7.213-21.763-2.12-28.317h.004Zm-19.547-13.649c-10.928 2.351-13.294-27.954-19.956-41.514-6.663-13.564-15.855-23.494-7.998-31.845 7.857-8.351 15.828 0 29.235-10.616 14.34-11.35 27.032.393 29.409 11.205 2.377 10.81-6.693 22.542-8.664 28.305-1.312 3.841-1.534 10.131-.668 18.87 1.3 13.107-10.433 23.244-21.362 25.595h.004Z" fill="#78E6FF"/><path d="M133.826 46.29c-1.749 13.755 18.801 33.053 33.843 23.634 14.711-9.213 20.074 13.626 48.36 22.414-6.928-39.221-38.18-70.053-77.633-76.412 3.138 6.293-3.24 19.927-4.567 30.368l-.003-.004ZM128.728 135.142c-.869-8.738-.647-15.028.667-18.869 1.968-5.763 11.042-17.494 8.665-28.305-2.377-10.812-15.07-22.555-29.409-11.206C95.24 87.38 87.269 79.029 79.416 87.38c-7.857 8.351 1.335 18.281 7.998 31.845 6.662 13.564 9.031 43.865 19.956 41.514 10.925-2.351 22.662-12.488 21.362-25.596h-.004ZM97.94 182.941c-6.576-11.86-30.717-35.494-51.372-19.54 12.4 17.353 30.557 30.312 51.685 36.114 1.986-5.653 2.545-11.424-.309-16.574h-.004ZM50.467 88.178c0-21.681 15.043-12.125 33.988-26.398 15.402-11.603 10.37-21.467 4.204-40.512-34.894 13.778-59.577 47.775-59.577 87.527a93.806 93.806 0 0 0 5.215 30.928c6.319-1.173 12.119-3.497 16.166-7.329 14.29-13.521 0-22.539 0-44.216h.004ZM158.267 142.18c13.141 33.743-19.688 17.185-31.354 32.203-5.09 6.55-3.415 16.859 2.119 28.317 45.569-2.749 82.395-37.853 87.754-82.618-3.864-3.724-7.939-6.702-12.088-8.613-14.028-6.456-59.573-3.033-46.427 30.711h-.004Z" fill="#009664"/><path d="M32.458 115.36c-12.373-4.214-25.873 2.41-30.093 14.769-2.872 8.417-.71 17.353 4.867 23.529L0 161.806l4.496 3.985 7.295-8.219a23.74 23.74 0 0 0 5.36 2.616c12.372 4.215 25.873-2.409 30.092-14.768 4.22-12.359-2.412-25.845-14.785-30.06Zm9.098 28.122c-3.15 9.224-13.227 14.172-22.462 11.026-9.235-3.147-14.188-13.213-11.038-22.438 3.15-9.224 13.228-14.172 22.462-11.025 9.235 3.146 14.188 13.213 11.038 22.437Z" fill="#000"/><path d="M41.556 143.482c-3.15 9.224-13.227 14.172-22.462 11.026-9.235-3.147-14.188-13.213-11.038-22.438 3.15-9.224 13.228-14.172 22.462-11.025 9.235 3.146 14.188 13.212 11.038 22.437Z" fill="#fff"/><path d="M37.072 138.293c-1.48 4.331-6.21 6.651-10.543 5.173-4.336-1.477-6.658-6.202-5.18-10.53 1.48-4.332 6.21-6.651 10.543-5.174 4.336 1.478 6.659 6.203 5.18 10.531Z" fill="#000"/><path d="M37.821 133.599a3.584 3.584 0 0 1-4.543 2.23 3.577 3.577 0 0 1-2.233-4.538 3.582 3.582 0 0 1 4.544-2.23 3.577 3.577 0 0 1 2.232 4.538Z" fill="#fff"/><path d="M121.004 0c-13.072 0-23.708 10.624-23.708 23.681 0 8.893 4.934 16.652 12.209 20.698l-4.211 10.044 5.542 2.32 4.247-10.13c1.893.488 3.876.75 5.921.75 13.071 0 23.707-10.625 23.707-23.682C144.711 10.624 134.075 0 121.004 0ZM138.7 23.681c0 9.747-7.938 17.677-17.696 17.677-9.758 0-17.697-7.93-17.697-17.677s7.939-17.677 17.697-17.677 17.696 7.93 17.696 17.677Z" fill="#000"/><path d="M121.004 41.335c9.76 0 17.673-7.904 17.673-17.654s-7.913-17.653-17.673-17.653c-9.761 0-17.673 7.903-17.673 17.653s7.912 17.654 17.673 17.654Z" fill="#fff"/><path d="M111.535 31.26a.893.893 0 0 1-.894-.893V16.995a.893.893 0 0 1 1.788 0v13.372a.893.893 0 0 1-.894.893ZM114.692 31.26a.893.893 0 0 1-.893-.893V16.995a.893.893 0 0 1 1.787 0v13.372a.893.893 0 0 1-.894.893ZM117.846 31.26a.893.893 0 0 1-.894-.893V16.995a.893.893 0 0 1 1.788 0v13.372a.893.893 0 0 1-.894.893ZM121.004 31.26a.893.893 0 0 1-.894-.893V16.995a.893.893 0 0 1 1.788 0v13.372a.893.893 0 0 1-.894.893ZM124.157 31.26a.893.893 0 0 1-.893-.893V16.995a.893.893 0 0 1 1.787 0v13.372a.893.893 0 0 1-.894.893ZM127.315 31.26a.893.893 0 0 1-.894-.893V16.995a.893.893 0 0 1 1.788 0v13.372a.893.893 0 0 1-.894.893ZM130.469 31.26a.893.893 0 0 1-.894-.893V16.995a.893.893 0 0 1 1.788 0v13.372a.893.893 0 0 1-.894.893ZM180.218 168.968c6.264 11.463 20.698 15.693 32.169 9.435a23.674 23.674 0 0 0 4.836-3.489l8.591 6.858 3.751-4.691-8.517-6.799c4.442-7.037 5.051-16.207.785-24.012-6.265-11.463-20.699-15.693-32.17-9.435-11.475 6.257-15.71 20.675-9.445 32.133Zm5.273-2.877c-4.676-8.554-1.515-19.318 7.053-23.989 8.563-4.671 19.34-1.513 24.015 7.045 4.676 8.554 1.515 19.318-7.052 23.989-8.564 4.671-19.34 1.513-24.016-7.045Z" fill="#000"/><path d="M185.491 166.091c4.676 8.554 15.448 11.716 24.016 7.045 8.563-4.671 11.728-15.431 7.052-23.989-4.675-8.554-15.448-11.716-24.015-7.045-8.564 4.671-11.729 15.431-7.053 23.989Z" fill="#fff"/><path d="M190.026 159.256c2.194 4.016 7.252 5.498 11.272 3.307 4.021-2.192 5.504-7.244 3.31-11.26-2.193-4.016-7.252-5.497-11.272-3.306-4.02 2.191-5.503 7.244-3.31 11.259Z" fill="#000"/><path d="M189.936 152.55a3.585 3.585 0 0 0 4.86 1.423 3.574 3.574 0 0 0 1.424-4.853 3.584 3.584 0 0 0-4.859-1.424 3.577 3.577 0 0 0-1.425 4.854Z" fill="#fff"/></g><defs><clipPath id="a"><path fill="#fff" d="M0 0h237v254H0z"/></clipPath></defs></svg>
